X:15
M:C
L:1/8
Q:"Andante  "1/4=110
K:C
!p!G|[cGE]>c[cAF]>c ([cGE]Gc[afc])|([gec]>e{e/}d>c) [c3A3](G/A/)|\
[cGE]>c[cAF]>c ([cGE]Gca)|([gec]>a[c'e][ec]) [g3B3][af]|
([ge]>ac'[ec]) ([ge]>[eG][dF][cE])|\
[dAF](d/e f/e/d/c/) {B/}[A3F3]G/A/|\
[cGE]>c[cAF]>c ([cGE]Gc[afc])|([gec]<e)([dBG]>e) [c3E3]||
(E>G[cE]>G) ([AF]>[GE][cE][dG])|[ec]>f (g/a/b/c'/) [g3d3B3] (a/b/)|
(c'>bag) (a>gfe)|(d>e f/e/d/c/) {B/}A3 (G/A/)|\
[cGE]>c[cAF]>c ([cGE]Gc[afc])|([gec]>e)([dBG]>e) [c3E3]||

